themes/karlhaworth-com/static/svgs/us-airways.svg

<?xml version="1.0" encoding="UTF-8"?>
<!-- Generated by Pixelmator Pro 3.6.17 -->
<svg width="440" height="262" viewBox="0 0 440 262" xmlns="http://www.w3.org/2000/svg">
    <g id="Group">
        <path id="Path" fill="#d1d3d4" fill-rule="evenodd" stroke="none" d="M 116.089996 58.342987 L 439.369995 58.342987 L 439.369995 86.080994 L 116.089996 86.080994 L 116.089996 58.342987 Z"/>
        <path id="path1" fill="#d1d3d4" fill-rule="evenodd" stroke="none" d="M 116.089996 0 L 439.369995 0 L 439.369995 29.651001 L 116.089996 29.651001 L 116.089996 0 Z"/>
        <path id="path2" fill="#d1d3d4" fill-rule="evenodd" stroke="none" d="M 0.363 115.730011 L 439.369995 115.730011 L 439.369995 144.419998 L 0.363 144.419998 L 0.363 115.730011 Z"/>
        <path id="path3" fill="#d1d3d4" fill-rule="evenodd" stroke="none" d="M 0.363 173.119995 L 439.369995 173.119995 L 439.369995 201.809998 L 0.363 201.809998 L 0.363 173.119995 Z"/>
        <path id="path4" fill="#d1d3d4" fill-rule="evenodd" stroke="none" d="M 0.363 230.5 L 439.369995 230.5 L 439.369995 259.200012 L 0.363 259.200012 L 0.363 230.5 Z"/>
        <path id="path5" fill="#d1d3d4" fill-rule="evenodd" stroke="none" d="M 0.363 0 L 87.396004 0 L 87.396004 86.080994 L 0.363 86.080994 L 0.363 0 Z"/>
        <path id="path6" fill="#002d45" fill-rule="evenodd" stroke="none" d="M 51.061001 309.089996 L 56.624001 309.006012 C 56.624001 309.006012 56.789001 314.569 56.541 314.569 L 51.062 314.569 L 51.062 309.088989 L 51.061001 309.088989 Z M 0.333 294.559998 L 19.343 294.559998 L 19.261999 296.552002 L 16.438 296.552002 C 16.438 296.552002 13.615 296.552002 13.615 298.544006 L 13.615 322.455994 C 13.615 322.455994 13.366 330.009003 22.830999 329.927002 C 22.830999 329.927002 32.459999 331.255005 32.792999 321.537994 L 32.792999 298.709991 C 32.792999 298.709991 32.638 297.303986 31.299 296.630005 C 30.801001 296.381989 27.482 296.470001 27.482 296.470001 L 27.545 294.540009 L 46.991001 294.559998 L 46.825001 296.220001 L 43.502998 296.470001 C 43.502998 296.470001 41.382999 296.860992 41.261002 298.627991 C 41.140999 300.390015 41.429001 321.873993 41.429001 321.873993 C 41.429001 321.873993 40.681999 326.519012 36.861 328.765015 C 33.040001 331.010986 32.792999 332.001007 22.58 331.919006 C 22.58 331.919006 17.02 332.162994 10.211 329.510986 C 10.211 329.510986 5.809 327.519012 5.147 323.451996 L 4.981 299.041992 C 4.981 299.041992 5.064 296.802002 3.736 296.802002 L 0 296.652008 L 0.166 294.5 L 0.333 294.570007 Z M 360.042999 294.559998 L 379.033997 294.683014 L 379.07901 296.431 L 376.106995 296.431 C 376.106995 296.431 372.682007 296.988007 374.303009 299.355011 L 383.020996 313.863007 L 393.045013 298.915985 C 393.045013 298.915985 394.578003 296.636993 392.585999 296.699005 C 390.59201 296.763 387.812988 296.553009 387.812988 296.553009 L 387.75 294.68399 L 403.007996 294.68399 L 402.884003 296.425995 C 402.884003 296.425995 398.587006 296.113007 397.214996 298.046997 L 385.696014 315.97699 L 385.696014 327.622986 C 385.696014 327.622986 386.009003 328.993988 387.812012 329.05899 L 391.174011 328.994995 L 391.237 330.859985 L 371.356995 330.859985 L 371.356995 328.994995 L 374.15799 328.994995 C 374.15799 328.994995 375.839996 328.932007 376.152008 327.002991 L 376.213013 315.856995 L 365.067993 298.917999 C 365.067993 298.917999 364.194 296.73999 362.514008 296.554993 L 360.023987 296.492004 L 360.023987 294.552002 Z M 250.072998 294.559998 L 267.134003 294.746002 L 267.06601 296.968994 L 264.829987 296.924011 C 264.829987 296.924011 262.838013 296.675995 263.210999 297.984985 L 271.05899 323.018005 L 280.709015 295.557007 L 286.188995 295.493988 L 295.963989 322.828003 L 304.244995 299.976013 C 304.244995 299.976013 305.678986 296.923004 303.312988 296.86499 L 299.026001 296.699005 L 298.830994 294.618988 L 313.027008 294.618988 L 313.088989 296.675995 C 313.088989 296.675995 309.414001 295.992004 308.233002 298.730988 L 296.899994 330.924011 L 290.298004 331.045013 L 281.020996 304.149994 L 271.928986 331.045013 L 265.266998 330.924011 L 254.681 300.104004 C 254.681 300.104004 254.182999 297.050995 251.940994 296.803009 L 249.949005 296.617004 L 250.078995 294.566986 Z M 215.572998 297.48999 L 222.921997 297.48999 C 222.921997 297.48999 228.276001 298.300995 228.589005 304.339996 C 228.589005 304.339996 228.276001 311 223.233994 311.811005 L 215.574005 311.811005 L 215.574005 297.490997 L 215.563995 297.490997 Z M 201.382996 294.619995 L 224.735001 294.561005 C 224.735001 294.561005 237.934998 294.997009 237.686005 304.023987 C 237.686005 304.023987 237.126999 311.494995 229.591995 313.239014 C 229.591995 313.239014 237.748993 322.57901 244.785004 327.373993 C 244.785004 327.373993 247.710007 328.994995 250.824997 329.059998 L 250.949005 330.73999 L 242.046005 331.110992 C 242.046005 331.110992 236.503998 331.424011 231.272003 326.003998 L 220.561996 314.796997 L 215.580994 314.675995 L 215.518997 327.375 C 215.518997 327.375 215.457001 328.93399 217.199997 329.061005 L 220.251999 328.997009 L 220.313995 330.989014 L 201.509003 330.925995 L 201.445999 328.996002 L 204.186005 328.996002 C 204.186005 328.996002 205.867004 328.683014 205.992996 326.628998 C 205.992996 326.628998 206.009003 299.85199 205.929001 298.68399 C 205.751007 295.979004 201.518997 296.882996 201.518997 296.882996 L 201.378998 294.602997 Z M 168.923004 294.450012 C 169.363998 294.450012 188.641006 294.470001 188.641006 294.470001 L 188.492996 296.520996 L 186.296997 296.520996 C 186.296997 296.520996 183.076996 296.306 183.014008 298.360992 L 183.014008 326.877014 C 183.014008 326.877014 183.449997 328.93399 185.630005 329.061005 L 188.744003 329.061005 L 188.820999 331.096008 L 168.753998 331.046997 L 168.753998 329.061005 L 172.365997 328.997009 C 172.365997 328.997009 174.421997 328.622009 174.483994 325.819 L 174.421997 299.608002 C 174.421997 299.608002 174.360001 297.053009 172.304001 296.868011 L 169.013 296.522003 L 168.923004 294.451996 Z M 328.562988 315.339996 L 339.234985 315.265991 L 333.963989 301.496002 L 328.563995 315.335999 Z M 314.192993 330.790009 L 329.188995 330.747009 L 329.188995 328.85199 L 325.470001 328.890991 C 325.470001 328.890991 322.833008 329.032013 324.153992 325.515991 L 327.519012 317.615997 L 340.553009 317.615997 L 344.794006 326.548004 C 344.794006 326.548004 345.234985 328.598999 343.330994 328.891998 L 339.904999 328.852997 L 339.816986 330.790985 L 357.825012 330.747986 L 357.828003 328.893005 L 355.631012 328.740997 C 355.631012 328.740997 354.165985 328.595001 352.851013 325.518005 L 339.817993 294.625 L 333.079987 294.625 L 319.610992 326.549011 C 319.610992 326.549011 318.144012 328.893005 316.681 328.893005 L 314.192993 328.893005 L 314.192993 330.78299 L 314.203003 330.78299 Z M 131.632996 315.339996 L 142.214005 315.265991 L 136.944 301.496002 L 131.634003 315.335999 Z M 117.182999 330.790009 L 132.182007 330.747009 L 132.182007 328.85199 L 128.459 328.890991 C 128.459 328.890991 125.822998 329.032013 127.140999 325.515991 L 130.509003 317.615997 L 143.541 317.615997 L 147.787003 326.548004 C 147.787003 326.548004 148.225006 328.598999 146.322006 328.891998 L 142.955002 329.03299 L 142.807007 330.790985 L 160.906006 330.747986 L 160.819 328.893005 L 158.621994 328.740997 C 158.621994 328.740997 157.156006 328.595001 155.839005 325.518005 L 142.807999 294.625 L 136.072998 294.625 L 122.600998 326.549011 C 122.600998 326.549011 121.136002 328.893005 119.672997 328.893005 L 117.183998 328.893005 L 117.183998 330.78299 L 117.194 330.78299 Z M 407.662994 319.51001 L 410.295013 319.51001 C 410.295013 319.51001 413.518005 330.343994 424.648987 329.617004 C 424.648987 329.617004 431.674011 328.438995 430.795013 322.585999 C 430.795013 322.585999 431.093994 319.21701 425.527008 317.312988 C 425.527008 317.312988 411.463989 312.921997 408.683014 307.062988 C 408.683014 307.062988 405.997009 298.859985 416.299988 295.061005 C 416.299988 295.061005 425.377014 291.398987 436.212006 296.375 L 436.505005 304.86499 L 434.309998 304.86499 C 434.309998 304.86499 432.406006 295.938995 424.208008 296.231995 C 424.208008 296.231995 415.858002 296.813995 416.737 302.673004 C 416.737 302.673004 416.446014 306.769012 427.281006 309.552002 C 427.281006 309.552002 439.72699 313.213989 439.287994 321.412994 C 439.287994 321.412994 440.601013 330.928986 423.183014 332.101013 C 423.183014 332.101013 413.951996 331.808014 408.683014 328.731995 L 407.662994 319.502014 Z M 63.443001 319.51001 L 66.077003 319.51001 C 66.077003 319.51001 69.296997 330.343994 80.427002 329.617004 C 80.427002 329.617004 87.457001 328.438995 86.578003 322.585999 C 86.578003 322.585999 86.871002 319.21701 81.306 317.312988 C 81.306 317.312988 67.247002 312.921997 64.466003 307.062988 C 64.466003 307.062988 63 298.429993 72.081001 295.061005 C 72.081001 295.061005 81.160004 291.398987 91.996002 296.375 L 92.287003 304.86499 L 90.091003 304.86499 C 90.091003 304.86499 88.188004 295.938995 79.987999 296.231995 C 79.987999 296.231995 71.641998 296.813995 72.519997 302.673004 C 72.519997 302.673004 72.228996 306.769012 83.063004 309.552002 C 83.063004 309.552002 95.508003 313.213989 95.07 321.412994 C 95.07 321.412994 96.385002 330.928986 78.962997 332.101013 C 78.962997 332.101013 69.735001 331.808014 64.466003 328.731995 L 63.443001 319.502014 Z"/>
    </g>
</svg>

<svg xmlns="http://www.w3.org/2000/svg" width="440" height="262"><g fill-rule="evenodd"><path fill="#d1d3d4" d="M116.09 58.343h323.28v27.738H116.09zm0-58.343h323.28v29.651H116.09zM.363 115.73H439.37v28.69H.363zm0 57.39H439.37v28.69H.363zm0 57.38H439.37v28.7H.363zM.363 0h87.033v86.081H.363z"/><path fill="#002d45" d="m51.061 309.09 5.563-.084s.165 5.563-.083 5.563h-5.479v-5.48h-.001ZM.333 294.56h19.01l-.081 1.992h-2.824s-2.823 0-2.823 1.992v23.912s-.249 7.553 9.216 7.471c0 0 9.629 1.328 9.962-8.389V298.71s-.155-1.406-1.494-2.08c-.498-.248-3.817-.16-3.817-.16l.063-1.93 19.446.02-.166 1.66-3.322.25s-2.12.391-2.242 2.158c-.12 1.762.168 23.246.168 23.246s-.747 4.645-4.568 6.891-4.068 3.236-14.281 3.154c0 0-5.56.244-12.369-2.408 0 0-4.402-1.992-5.064-6.059l-.166-24.41s.083-2.24-1.245-2.24L0 296.652l.166-2.152.167.07Zm359.71 0 18.991.123.045 1.748h-2.972s-3.425.557-1.804 2.924l8.718 14.508 10.024-14.947s1.533-2.279-.459-2.217c-1.994.064-4.773-.146-4.773-.146l-.063-1.869h15.258l-.124 1.742s-4.297-.313-5.669 1.621l-11.519 17.93v11.646s.313 1.371 2.116 1.436l3.362-.064.063 1.865h-19.88v-1.865h2.801s1.682-.063 1.994-1.992l.061-11.146-11.145-16.939s-.874-2.178-2.554-2.363l-2.49-.063v-1.94Zm-109.97 0 17.061.186-.068 2.223-2.236-.045s-1.992-.248-1.619 1.061l7.848 25.033 9.65-27.461 5.48-.063 9.775 27.334 8.281-22.852s1.434-3.053-.932-3.111l-4.287-.166-.195-2.08h14.196l.062 2.057s-3.675-.684-4.856 2.055L296.9 330.924l-6.602.121-9.277-26.895-9.092 26.895-6.662-.121-10.586-30.82s-.498-3.053-2.74-3.301l-1.992-.186.13-2.05Zm-34.5 2.93h7.349s5.354.811 5.667 6.85c0 0-.313 6.66-5.355 7.471h-7.66v-14.32h-.01Zm-14.19-2.87 23.352-.059s13.2.436 12.951 9.463c0 0-.559 7.471-8.094 9.215 0 0 8.157 9.34 15.193 14.135 0 0 2.925 1.621 6.04 1.686l.124 1.68-8.903.371s-5.542.313-10.774-5.107l-10.71-11.207-4.981-.121-.062 12.699s-.062 1.559 1.681 1.686l3.052-.064.062 1.992-18.805-.063-.063-1.93h2.74s1.681-.313 1.807-2.367c0 0 .016-26.777-.064-27.945-.178-2.705-4.41-1.801-4.41-1.801l-.14-2.28Zm-32.46-.17 19.718.02-.148 2.051h-2.196s-3.22-.215-3.283 1.84v28.516s.436 2.057 2.616 2.184h3.114l.077 2.035-20.067-.049v-1.986l3.612-.064s2.056-.375 2.118-3.178l-.062-26.211s-.062-2.555-2.118-2.74l-3.291-.346-.09-2.07Zm159.64 20.89 10.672-.074-5.271-13.77-5.4 13.84Zm-14.37 15.45 14.996-.043v-1.895l-3.719.039s-2.637.141-1.316-3.375l3.365-7.9h13.034l4.241 8.932s.441 2.051-1.463 2.344l-3.426-.039-.088 1.938 18.008-.043.003-1.855-2.197-.152s-1.465-.146-2.78-3.223l-13.033-30.893h-6.738l-13.469 31.924s-1.467 2.344-2.93 2.344h-2.488v1.89h.01Zm-182.56-15.45 10.581-.074-5.27-13.77-5.31 13.84Zm-14.45 15.45 14.999-.043v-1.895l-3.723.039s-2.636.141-1.318-3.375l3.368-7.9h13.032l4.246 8.932s.438 2.051-1.465 2.344l-3.367.141-.148 1.758 18.099-.043-.087-1.855-2.197-.152s-1.466-.146-2.783-3.223l-13.031-30.893h-6.735l-13.472 31.924s-1.465 2.344-2.928 2.344h-2.489v1.89h.01Zm290.48-11.28h2.632s3.223 10.834 14.354 10.107c0 0 7.025-1.178 6.146-7.031 0 0 .299-3.369-5.268-5.273 0 0-14.063-4.391-16.844-10.25 0 0-2.686-8.203 7.617-12.002 0 0 9.077-3.662 19.912 1.314l.293 8.49h-2.195s-1.904-8.926-10.102-8.633c0 0-8.35.582-7.471 6.441 0 0-.291 4.096 10.544 6.879 0 0 12.446 3.662 12.007 11.861 0 0 1.313 9.516-16.105 10.688 0 0-9.231-.293-14.5-3.369l-1.02-9.23Zm-344.22 0h2.634s3.22 10.834 14.35 10.107c0 0 7.03-1.178 6.151-7.031 0 0 .293-3.369-5.272-5.273 0 0-14.059-4.391-16.84-10.25 0 0-1.466-8.633 7.615-12.002 0 0 9.079-3.662 19.915 1.314l.291 8.49h-2.196s-1.903-8.926-10.103-8.633c0 0-8.346.582-7.468 6.441 0 0-.291 4.096 10.543 6.879 0 0 12.445 3.662 12.007 11.861 0 0 1.315 9.516-16.107 10.688 0 0-9.228-.293-14.497-3.369l-1.023-9.23Z"/></g></svg>
